icons/arm.svg

<!--
  - The MIT License (MIT)
  -
  - Copyright (c) 2015-2024 Elior "Mallowigi" Boukhobza
  -
  - Permission is hereby granted, free of charge, to any person obtaining a copy
  - of this software and associated documentation files (the "Software"), to deal
  - in the Software without restriction, including without limitation the rights
  - to use, copy, modify, merge, publish, distribute, sublicense, and/or sell
  - copies of the Software, and to permit persons to whom the Software is
  - furnished to do so, subject to the following conditions:
  -
  - The above copyright notice and this permission notice shall be included in all
  - copies or substantial portions of the Software.
  -
  - THE SOFTWARE IS PROVIDED "AS IS", WITHOUT WARRANTY OF ANY KIND, EXPRESS OR
  - IMPLIED, INCLUDING BUT NOT LIMITED TO THE WARRANTIES OF MERCHANTABILITY,
  - FITNESS FOR A PARTICULAR PURPOSE AND NONINFRINGEMENT. IN NO EVENT SHALL THE
  - AUTHORS OR COPYRIGHT HOLDERS BE LIABLE FOR ANY CLAIM, DAMAGES OR OTHER
  - LIABILITY, WHETHER IN AN ACTION OF CONTRACT, TORT OR OTHERWISE, ARISING FROM,
  - OUT OF OR IN CONNECTION WITH THE SOFTWARE OR THE USE OR OTHER DEALINGS IN THE
  - SOFTWARE.
  -
  -->

<svg version="1.1" xmlns="http://www.w3.org/2000/svg" viewBox="0 0 512 512" width="16px" height="16px">
  <path fill="#008db7" data-iconColor="ARM"
        d="M72.004097,178.3330231c10.8150558,0,29.8495407,2.8119202,43.6928101,20.9812012v-17.0877686h34.3918533v147.3009796H115.696907v-15.3573914c-15.1410675,17.5203857-33.5266571,19.8997192-44.1254044,19.8997192C-24.1450768,333.8039246-23.7124805,178.0671997,72.004097,178.3330231z M76.3301315,209.4803772c-54.5545273,0-54.5545273,94.0909119,0,94.0909119C132.1858826,303.4737854,132.0601196,209.4803772,76.3301315,209.4803772z M287.6562195,185.0383606l-14.0595703,31.1473389c-18.8851166-11.3879547-50.4056549-6.7854004-48.451416,36.7711792l-0.0000153,76.5705566h-34.391861l0.2162933-147.3009796h34.391861v13.1943665C244.5068665,171.5338135,272.6800842,176.3688202,287.6562195,185.0383606z M343.245575,254.0383606l-0.0000305,75.9216614h-33.5266418V182.2264557h34.3918457v13.6269531c19.8197937-25.5615692,59.9897461-22.3362579,74.4075623,4.109726c24.2704163-35.5423584,95.4008789-31.4976959,93.4420166,38.717865v91.0627136h-34.3918457l0.0000305-80.8965607c0.3629456-22.8517914-3.5488281-38.5830841-22.927948-39.1504822c-16.9425354,1.3772888-27.7515564,12.3955383-27.0376282,44.3416901v75.9216614h-34.3918457v-81.1128693c0.7778015-24.7317505-5.4992065-39.1928406-22.9279175-39.1504822C352.8296814,210.3998566,342.5087891,223.3242035,343.245575,254.0383606z"/>
</svg>

<svg xmlns="http://www.w3.org/2000/svg" viewBox="0 0 512 512"><path fill="#008db7" d="M72.004 178.333c10.815 0 29.85 2.812 43.693 20.981v-17.088h34.392v147.301h-34.392V314.17c-15.141 17.52-33.527 19.9-44.125 19.9-95.717-.266-95.284-156.003.432-155.737m4.326 31.147c-54.554 0-54.554 94.091 0 94.091 55.856-.097 55.73-94.09 0-94.09m211.326-24.442-14.06 31.148c-18.884-11.388-50.405-6.786-48.45 36.77v76.571h-34.393l.217-147.3h34.392v13.194c19.145-23.887 47.318-19.052 62.294-10.383m55.59 69v75.922h-33.527V182.226h34.392v13.627c19.82-25.561 59.99-22.336 74.407 4.11 24.27-35.542 95.401-31.498 93.442 38.718v91.063h-34.392v-80.897c.363-22.852-3.548-38.583-22.927-39.15-16.943 1.377-27.752 12.395-27.038 44.341v75.922H393.21v-81.113c.778-24.732-5.5-39.193-22.928-39.15-17.453.703-27.774 13.627-27.037 44.341" data-iconColor="ARM"/></svg>
